svgs/sharp-regular/album-collection.svg

<svg xmlns="http://www.w3.org/2000/svg" viewBox="0 0 512 512"><!--! Font Awesome Pro 6.6.0 by @fontawesome - https://fontawesome.com License - https://fontawesome.com/license (Commercial License) Copyright 2024 Fonticons, Inc. --><path d="M32 0L56 0 456 0l24 0 0 48-24 0L56 48 32 48 32 0zM400 336c0 57.4-64.5 104-144 104s-144-46.6-144-104s64.5-104 144-104s144 46.6 144 104zM40 80l432 0 24 0 0 48-24 0L40 128l-24 0 0-48 24 0zM82.9 464l346.3 0 29.1-256L53.8 208 82.9 464zM472 512L40 512 5.5 208 0 160l48.3 0 415.4 0 48.3 0-5.5 48L472 512zM256 368c17.7 0 32-10.7 32-24s-14.3-24-32-24s-32 10.7-32 24s14.3 24 32 24z"/></svg>

<svg xmlns="http://www.w3.org/2000/svg" viewBox="0 0 512 512"><!--! Font Awesome Pro 6.4.0 by @fontawesome - https://fontawesome.com License - https://fontawesome.com/license (Commercial License) Copyright 2023 Fonticons, Inc. --><path d="M32 0H56 456h24V48H456 56 32V0zM400 336c0 57.4-64.5 104-144 104s-144-46.6-144-104s64.5-104 144-104s144 46.6 144 104zM40 80H472h24v48H472 40 16V80H40zM82.9 464H429.1l29.1-256H53.8L82.9 464zM472 512H40L5.5 208 0 160H48.3 463.7 512l-5.5 48L472 512zM256 368c17.7 0 32-10.7 32-24s-14.3-24-32-24s-32 10.7-32 24s14.3 24 32 24z"/></svg>
